korla/status/symbolic/orientation-landscape-symbolic.svg

<svg style="clip-rule:evenodd;fill-rule:evenodd;stroke-linejoin:round;stroke-miterlimit:2" version="1.1" viewBox="0 0 16 16" xmlns="http://www.w3.org/2000/svg">
 <path d="m2 13s-1 0-1-1v-8s0-1 1-1h12s1 0 1 1v8s0 1-1 1h-12z" style="fill-opacity:.3;fill:rgb(223,223,223)"/>
 <path d="m4 10h8l-4-4-4 4z" style="fill:rgb(223,223,223)"/>
</svg>

<svg xmlns="http://www.w3.org/2000/svg" width="16" height="16" version="1.1">
 <path style="fill:#dfdfdf" d="M 2,13 C 2,13 1,13 1,12 V 4 C 1,4 1,3 2,3 H 14 C 14,3 15,3 15,4 V 12 C 15,12 15,13 14,13 Z M 4,10 H 12 L 8,6 Z"/>
</svg>
